X: 4
T: Father Kelly's
R: reel
M: 4/4
L: 1/8
K: Gmaj
|: GA| B2 GB AGEG | DGGF G2AB | c2 AB cBAG | EGAG FDGA |
B2 GB AGEG | DGGF G2Bc | d2 Bd gdBd | cAFA G2 :|
|: Bc | d2 Bd gdBd | d2 Bd gdBd | e2 ce agfe | defg agfe |
d2 Bd gdBd | d2 Bd gdBd | c2 dc BAGB | AGEF G2 :|


Tune 791	Setting 23637

